X: 5024
T: Brian Boru's March
R: jig
M: 6/8
K: Eminor
BA|:GFE EBA|GFE EAG|FED DAG|FED DBA|
GFE EBA|GFE E3|EGA ~B2A|1 GFE EBA:|2 GFE E3||
|:EGA ~B2A|~B2A BAF|DEF AFD|AFD AFD|
EGA ~B2A|~B2A ~B2A|GFE ~B2A|GFE E3:|
|:GFE e2e|GFE e2e|FED d2d|FED d2d|
GFE e2e|GFE e3|EGA ~B2A|1 GFE E3:|2 GFE EBA||

